X:241
T: Es war einmal eine Jdin (17a)
N: T0129V
O: Luxemburg
S: Singendes Volk, Esch-Alzette 1937 posth.]
N: Esch-Alz., Anna Mller, 1915,
N: 17b)- Rammeldingen, Frau Wagner, 17.2.1934
R: Liebeslieder]
M: 6/8
L: 1/16
K: G
D2 | G4G2B4AA | G6G4
D2 | A4A2A4A2 | B4z6
B2 | B2B2B2d4d2 | c4E2E4
E2 | D3Dc2B4A2 | G4z6
B2 | B2B2B2d4d2 | c4E2E4
E2 | D3Dc2B4A2 | G4z6

